ix/shield-security_linear.svg

<svg viewBox="0 0 24 24" fill="none" xmlns="http://www.w3.org/2000/svg" height="1em" width="1em">
  <path d="M10.49 2.23006L5.49997 4.11006C4.34997 4.54006 3.40997 5.90006 3.40997 7.12006V14.5501C3.40997 15.7301 4.18997 17.2801 5.13997 17.9901L9.43997 21.2001C10.85 22.2601 13.17 22.2601 14.58 21.2001L18.88 17.9901C19.83 17.2801 20.61 15.7301 20.61 14.5501V7.12006C20.61 5.89006 19.67 4.53006 18.52 4.10006L13.53 2.23006C12.68 1.92006 11.32 1.92006 10.49 2.23006Z" stroke="#292D32" stroke-width="1.5" stroke-linecap="round" stroke-linejoin="round"/>
  <path d="M12 12.5C13.1046 12.5 14 11.6046 14 10.5C14 9.39543 13.1046 8.5 12 8.5C10.8954 8.5 10 9.39543 10 10.5C10 11.6046 10.8954 12.5 12 12.5Z" stroke="#292D32" stroke-width="1.5" stroke-miterlimit="10" stroke-linecap="round" stroke-linejoin="round"/>
  <path d="M12 12.5V15.5" stroke="#292D32" stroke-width="1.5" stroke-miterlimit="10" stroke-linecap="round" stroke-linejoin="round"/>
</svg>

<svg viewBox="0 0 24 24" fill="none" xmlns="http://www.w3.org/2000/svg" height="1em" width="1em">
  <path d="M10.49 2.23 5.5 4.11c-1.15.43-2.09 1.79-2.09 3.01v7.43c0 1.18.78 2.73 1.73 3.44l4.3 3.21c1.41 1.06 3.73 1.06 5.14 0l4.3-3.21c.95-.71 1.73-2.26 1.73-3.44V7.12c0-1.23-.94-2.59-2.09-3.02l-4.99-1.87c-.85-.31-2.21-.31-3.04 0Z" stroke="#292D32" stroke-width="1.5" stroke-linecap="round" stroke-linejoin="round"/>
  <path d="M12 12.5a2 2 0 1 0 0-4 2 2 0 0 0 0 4Zm0 0v3" stroke="#292D32" stroke-width="1.5" stroke-miterlimit="10" stroke-linecap="round" stroke-linejoin="round"/>
</svg>
